src/parts/tops/LongHairFroBand.svg

<svg>
  <g
    id="Top"
    strokeWidth="1"
    fillRule="evenodd"
  >
    <defs>
      <rect
        id="LongHairFroBand-path1"
        x="0"
        y="0"
        width="264"
        height="280"
      />
      <path
        id="LongHairFroBand-path2"
        d="M80.0203173,73.8104172 C78.0626651,79.5136273 77,85.6327143 77,92 L77,92 L77,98.1659169 C71.3245733,99.1180731 67,104.054007 67,110 L67,123 C67,129.018625 71.4308707,134.002364 77.2085808,134.867187 C78.9518066,155.114792 91.4692178,172.282984 109,180.610951 L109,191.55498 C104.295298,193.764912 99.0418843,195 93.5,195 C84.6936661,195 76.615743,191.881303 70.3104439,186.688122 C68.4019201,186.894245 66.4633102,187 64.5,187 C43.405572,187 25.1625605,174.791635 16.4510993,157.055039 C8.9342791,151.923647 4,143.288055 4,133.5 C4,131.385405 4.23029535,129.324599 4.66717333,127.341294 C2.29639351,121.011656 1,114.157223 1,107 C1,94.2436789 5.11811695,82.4491956 12.0974246,72.8734763 C12.0329017,72.0908558 12,71.2992702 12,70.5 C12,59.2025056 18.5734777,49.4403292 28.1042855,44.8296184 C36.5367477,26.7016558 54.5576512,13.9359054 75.6500672,13.049296 C80.7818839,8.06730831 87.7827378,5 95.5,5 C97.8269611,5 100.088787,5.27887473 102.253881,5.80502563 C111.775927,2.05800249 122.147627,0 133,0 C143.346018,0 153.255173,1.87043661 162.407758,5.29160393 C163.744126,5.09944416 165.11045,5 166.5,5 C174.217262,5 181.218116,8.06730831 186.349933,13.049296 C207.442349,13.9359054 225.463252,26.7016558 233.895715,44.8296184 C243.426522,49.4403292 250,59.2025056 250,70.5 C250,71.2992702 249.967098,72.0908558 249.902575,72.8734763 C256.881883,82.4491956 261,94.2436789 261,107 C261,114.157223 259.703606,121.011656 257.332827,127.341294 C257.769705,129.324599 258,131.385405 258,133.5 C258,143.288055 253.065721,151.923647 245.548901,157.055039 C236.837439,174.791635 218.594428,187 197.5,187 C195.53669,187 193.59808,186.894245 191.689556,186.688122 C185.384257,191.881303 177.306334,195 168.5,195 C164.481965,195 160.61557,194.350752 157,193.151442 L157,180.610951 C174.530782,172.282984 187.048193,155.114792 188.791419,134.867187 C194.569129,134.002364 199,129.018625 199,123 L199,110 C199,104.054007 194.675427,99.1180731 189,98.1659169 L189,92 C189,86.5585666 188.223906,81.2983998 186.776371,76.3241528 L188.153157,89.1947292 L176.812614,65.1945789 L131.676809,45.6707349 L101.563146,56.2283606 L80.0648273,76.419385 L80.0203173,73.8104172 Z"
      />
    </defs>
    <mask
      id="LongHairFroBand-mask1"
      fill="white"
    >
      <use href="#LongHairFroBand-path1" />
    </mask>
    <g id="Mask" />
    <g
      id="Top/Long-Hair/Fro-+-Band"
      mask="url('#LongHairFroBand-mask1')"
    >
      <g transform="translate(-1.000000, 0.000000)">
        <mask
          id="LongHairFroBand-mask2"
          fill="white"
        >
          <use href="#LongHairFroBand-path2" />
        </mask>
        <use
          class="CustomColor"
          stroke="none"
          fill="var(--avataaar-hair-color)"
          fillRule="evenodd"
          href="#LongHairFroBand-path2"
        />
        <path
          id="Band"
          d="M76.6313898,98.975 C76.2155465,96.423245 76,93.8109442 76,91.1521739 C76,62.3493236 101.295912,39 132.5,39 C163.704088,39 189,62.3493236 189,91.1521739 C189,93.8109442 188.784453,96.423245 188.36861,98.975 C184.279562,73.883217 160.823662,54.6456522 132.5,54.6456522 C104.176338,54.6456522 80.7204382,73.883217 76.6313898,98.975 Z"
          stroke="none"
          fill="#92D9FF"
          fillRule="evenodd"
        />
      </g>
    </g>
  </g>
</svg>

<svg>
  <g id="Top">
    <defs>
      <path id="LongHairFroBand-path1" d="M0 0h264v280H0z"/>
      <path id="LongHairFroBand-path2" d="M80.02 73.81A55.925 55.925 0 0 0 77 92v6.166c-5.675.952-10 5.888-10 11.834v13c0 6.019 4.43 11.002 10.209 11.867 1.743 20.248 14.26 37.416 31.791 45.744v10.944A36.36 36.36 0 0 1 93.5 195a36.35 36.35 0 0 1-23.19-8.312 54.1 54.1 0 0 1-5.81.312c-21.094 0-39.337-12.208-48.049-29.945C8.934 151.924 4 143.288 4 133.5c0-2.115.23-4.175.667-6.159A57.875 57.875 0 0 1 1 107c0-12.756 4.118-24.55 11.097-34.127A28.882 28.882 0 0 1 12 70.5c0-11.297 6.573-21.06 16.104-25.67 8.433-18.128 26.454-30.894 47.546-31.78A28.406 28.406 0 0 1 95.5 5c2.327 0 4.589.279 6.754.805C111.776 2.058 122.148 0 133 0c10.346 0 20.255 1.87 29.408 5.292A28.74 28.74 0 0 1 166.5 5a28.406 28.406 0 0 1 19.85 8.05c21.092.886 39.113 13.652 47.546 31.78C243.426 49.44 250 59.203 250 70.5c0 .8-.033 1.59-.097 2.373C256.882 82.45 261 94.243 261 107a57.875 57.875 0 0 1-3.667 20.341A28.6 28.6 0 0 1 258 133.5c0 9.788-4.934 18.424-12.451 23.555C236.837 174.792 218.594 187 197.5 187a54.1 54.1 0 0 1-5.81-.312A36.35 36.35 0 0 1 168.5 195c-4.018 0-7.884-.65-11.5-1.849v-12.54c17.53-8.328 30.048-25.496 31.791-45.744C194.57 134.002 199 129.02 199 123v-13c0-5.946-4.325-10.882-10-11.834V92c0-5.441-.776-10.702-2.224-15.676l1.377 12.87-11.34-24-45.136-19.523-30.114 10.557L80.065 76.42l-.045-2.609Z"/>
    </defs>
    <mask id="LongHairFroBand-mask1" fill="#fff">
      <use href="#LongHairFroBand-path1"/>
    </mask>
    <g id="Top/Long-Hair/Fro-+-Band" mask="url('#LongHairFroBand-mask1')">
      <g transform="translate(-1)">
        <mask id="LongHairFroBand-mask2" fill="#fff">
          <use href="#LongHairFroBand-path2"/>
        </mask>
        <use fill="var(--avataaar-hair-color)" class="CustomColor" href="#LongHairFroBand-path2"/>
        <path id="Band" fill="#92D9FF" stroke="none" d="M76.631 98.975A48.603 48.603 0 0 1 76 91.152C76 62.35 101.296 39 132.5 39S189 62.35 189 91.152c0 2.659-.216 5.271-.631 7.823-4.09-25.092-27.545-44.33-55.869-44.33-28.324 0-51.78 19.238-55.869 44.33Z"/>
      </g>
    </g>
  </g>
</svg>
